app/dist/common/images/element-solutions.svg

<svg height="18" width="18" xmlns="http://www.w3.org/2000/svg"><path d="m0 0h18v18h-18z" fill="#143b6c"/><g fill="#fff"><path d="m11.812 11.857-1.25-1.955c-.757.569-2.081-.403-2.812-.326l-1.563 2.281z"/><path d="m8.375 7.545-.938-1.818h2.5l.313-.727h-3.888l1.388 2.545-3.75 5.455h4.687l.313-.727h-3.75z"/><path d="m10.25 7.546 1.38-2.546h-.755l-1.25 2.546 3.125 4.727h-3.75l.312.727h4.688z"/></g><path d="m10.887 5 .453-1h.774l-.467 1z" fill="#d41042"/></svg>

<!-- by TradingView --><svg width="18" height="18" xmlns="http://www.w3.org/2000/svg"><path fill="#143B6C" d="M0 0h18v18H0z"/><path d="M11.812 11.857l-1.25-1.955c-.757.569-2.081-.403-2.812-.326l-1.563 2.281h5.625z" fill="#fff"/><path d="M8.375 7.545l-.938-1.818h2.5L10.25 5H6.362L7.75 7.545 4 13h4.687L9 12.273H5.25l3.125-4.728z" fill="#fff"/><path d="M10.25 7.546L11.63 5h-.755l-1.25 2.546 3.125 4.727H9l.312.727H14l-3.75-5.454z" fill="#fff"/><path d="M10.887 5l.453-1h.774l-.467 1h-.76z" fill="#D41042"/></svg>
